X:1
T:Isaac Watts, 1709 (Hymn 1, Book 2)  88. 88. (L. M.)
T:G Major Oliver Holden, 1796
T:Incense No copyright. Transcribed from The Union Harmony, 1796.
%%score [ 1 2 3 ]
L:1/8
M:3/4
K:G
V:1 treble nm="Treble" snm="Tr."
V:2 treble-8 nm="Tenor" snm="T."
V:3 bass nm="Bass" snm="B."
V:1
 B2 G2 D2 | (G2 B2) d2 | (c2 B2) A2 | B4 z2 | d2 d2 d2 | (G2 B2) c2 | (B2 A2) G2 | d4 d2 | %8
w: 1.~Na- ture, with|all * her|powers * shall|sing|God the Cre-|a- * tor|and * the|King; Nor|
w: 2.~All mor- tal|things * of|mea- * ner|frame,|Ex- ert your|force, * and|own * His|name; While|
 (c2 B2) A2 | (B2 A2) d2 | (c2 B2) A2 | A4 A2 | (G2 B2) c2 | BAGA BA | (G2 d2) c2 | B6 || %16
w: air, * nor|earth, * nor|skies, * nor|seas De-|ny * the|tri- * * * bute *|of * their|praise.|
w: with * our|souls * and|with * our|voice We|sing * His|hon- * * * ors *|and * His|joys.|
[M:2/4] z2 z G | B2 c2 | B3 A | G2 B2 | d3 c | BA GG | A2 G2 | F4 | d2 dd | A3 A | GF GA | A4 | %28
w: Be-|gin to|make His|glo- ries|known, Ye|ser- aphs that sit|round His|throne;|Tune your harps|high, and|spread * the *|sound|
w: To|Him be|sac- red|all we|have, From|the young cra- dle|to the|grave;|Our lips shall|His loud|won- * ders *|tell,|
 G2 GG | dc BA | B4 | B2 cd | d3 d | ed ef | g4 | e2 dc | Be cB/A/ | G2 c2 | B4 |] %39
w: To the cre-|a- tion's ut- most|bound;|Tune your harps|high, and|spread * the *|sound|To the cre-|a- * tion's * *|ut- most|bound.|
w: And eve- ry|word a mir- a-|cle;|Our lips shall|His loud|won- * ders *|tell,|And eve- ry|word * a * *|mir- a-|cle.|
V:2
 G2 D2 G2 | (B2 G2) B2 | (A2 G2) F2 | G4 z2 | B2 B2 B2 | d4 F2 | (G2 A2) B2 | A4 A2 | (A2 G2) F2 | %9
w: 3.~Raise mon- u-|men- * tal|prai- * ses|high,|To Him that|thun- ders|through * the|sky; And|with * an|
w: 4.~Then let our|fla- * ming|zeal * em-|ploy|Our loft- iest|thoughts and|lou- * dest|songs; Na-|tion, * pro-|
 (E2 c2) B2 | (A2 d2) ^c2 | d4 d2 | (B2 d2) F2 | BAGA BA | (G2 d2) c2 | B6 ||[M:2/4] z2 z D | %17
w: aw- * ful|nod * or|frown Shakes|an * a-|spir- * * * ing *|ty- * rant|down.|Pil-|
w: nounce * with|war- * mest|joy Hos-|an- * nah|from~ _ _ _ ten *|thou- * sand|tongues.|Yet,|
 G2 A2 | G3 A | B2 B2 | B3 c | dc Bd | c2 B2 | A4 | A2 AA | d3 c | BA B^c | d4 | e2 dc | BA GF | %30
w: lars of|las- ting|brass pro-|claim The|tri- umphs of th'~e-|ter- nal|name;|While trem- bling|na- tions|read * from *|far|The hon- ors|of the God of|
w: migh- ty|God, our|fee- ble|frame At-|tempts in vain to|reach Thy|name;|The stron- gest|notes that|an- * gels *|raise,|Faint in the|wor- ship and the|
 G4 | d2 ef | g3 B | cB cd | e4 | g2 fe | dg ed/c/ | B2 A2 | G4 |] %39
w: war.|While trem- bling|na- tions|read * from *|far|The hon- ors|of * the * *|God of|war.|
w: praise.|The stron- gest|notes that|an- * gels *|raise|Faint in the|wor- * ship * *|and the|praise.|
V:3
 G,2 B,2 G,2 | G,4 G,2 | D,4 D,2 | G,4 z2 | G,2 G,2 G,2 | (D,2 B,,2) D,2 | (G,2 F,2) G,2 | %7
 D,4 D,2 | (D,2 E,2) F,2 | (G,2 F,2) G,2 | D,4 A,,2 | D,4 D,2 | B,,4 D,2 | G,4 C,2 | D,4 D,2 | %15
 A,,6 ||[M:2/4] z2 z G,, | B,,2 D,2 | G,3 D, | G,2 G,2 | G,3 A, | B,A, G,B, | A,2 G,2 | D,4 | %24
 D,2 D,D, | D,3 D, | G,D, G,A, | D,4 | C,2 B,,A,, | B,,C, D,D, | G,,4 | G,2 E,D, | G,3 G, | %33
 C,2 C,2 | C,4 | G,2 D,G, | [B,,B,]2 [C,C]2 | [D,D]2 D,2 | [G,,G,]4 |] %39

